X:1
T:#12 etude
T:#12 etude- Bass trombone
T:Kopprasch
T:K. Banaś
C:Korneliusz Banaś
Z:Korneliusz Banaś
L:1/8
Q:1/4=40
M:4/4
K:Bb
V:1 bass nm="Piano" snm="Pno."
V:1
"^\n\n\n"!mf! F,, | %1
 (G,,/F,,/).E,,/.D,,/ (F,,/E,,/).D,,/.C,,/ (E,,/D,,/).C,,/.B,,,/ (D,,/C,,/).B,,,/.A,,,/ | %2
 (C,,/D,,/).E,,/.F,,/ (D,,/E,,/).F,,/.G,,/ (E,,/F,,/).G,,/.A,,/ C,, z/!f! F,,/ | %3
 (B,,/A,,/).G,,/.F,,/ (A,,/G,,/).F,,/.E,,/ (G,,/F,,/).E,,/.D,,/ (F,,/E,,/).D,,/.C,,/ | %4
 (E,,/D,,/).C,,/.B,,,/ (D,,/C,,/).B,,,/.A,,,/ B,,,2 z2 | %5
!mf! (B,,,/D,,/).C,,/.B,,,/ (C,,/D,,/).E,,/.F,,/ (E,,/D,,/).C,,/.B,,,/ (D,,/C,,/).B,,,/.A,,,/ | %6
 (G,,,/A,,,/).B,,,/.C,,/ (B,,,/C,,/).D,,/.E,,/ (D,,/C,,/).B,,,/.A,,,/ (B,,,/A,,,/).G,,,/.[^F,,,^G,,]/ | %7
 .G,,, z!p! (G,,,/A,,,/).B,,,/.C,,/ (A,,,/B,,,/).C,,/.D,,/ (B,,,/C,,/).D,,/.=E,,/ | %8
 F,, z!f! (F,,/G,,/).A,,/.B,,/ (=E,,/F,,/).G,,/.A,,/ (D,,/=E,,/).F,,/.G,,/ | %9
 (C,,/D,,/).=E,,/.F,,/ (B,,,/C,,/).D,,/.=E,,/ (A,,,/B,,,/).C,,/.D,,/ (G,,,/A,,,/).B,,,/.C,,/ | %10
 [F,,,F,,] z!p! ([F,,,F,,]/G,,,/).A,,,/.B,,,/ (C,,/D,,/).=E,,/.F,,/ (E,,/F,,/).G,,/.A,,/ | %11
!f! F,,2 (G,,/F,,/).=E,,/.D,,/ C,,2 (C,,/B,,,/).A,,,/.G,,,/ | [F,,,F,,]4 z4 :: %13
!mf! (F,,/=E,,/).=D,,/.C,,/ (D,,/E,,/).F,,/.G,,/ (_A,,/G,,/).F,,/.E,,/ (F,,/_E,,/)._D,,/.C,,/ | %14
 (_D,,/C,,/).B,,,/.A,,,/ (B,,,/C,,/).E,,/.E,,/ (F,,/E,,/)._D,,/.C,,/ (D,,/C,,/).B,,,/.A,,,/ | %15
 (B,,,/C,,/)._D,,/.E,,/ (C,,/D,,/).E,,/.F,,/ (D,,/E,,/).F,,/._G,,/ (E,,/F,,/).G,,/._A,,/ | %16
 (_G,,/F,,/).E,,/._D,,/ (C,,/D,,/).E,,/.F,,/ (E,,/D,,/).C,,/.B,,,/ (=A,,,/B,,,/).C,,/.D,,/ | %17
 .B,,,2!f! (B,,/_A,,/)._G,,/.F,,/ =E,,2 (B,,,/C,,/)._D,,/.B,,,/ | [F,,,F,,]2 z4 z!mf! F,, | %19
 (G,,/F,,/).E,,/.D,,/ (F,,/E,,/).D,,/.C,,/ (E,,/D,,/).C,,/.B,,,/ (D,,/C,,/).B,,,/.A,,,/ | %20
 (B,,,/C,,/).D,,/.E,,/ (C,,/D,,/).E,,/.F,,/ (D,,/E,,/).F,,/.G,,/ (E,,/F,,/).G,,/.A,,/ | %21
 B,, z!f! (G,,/A,,/).B,,/.C,/ (F,,/G,,/).A,,/.B,,/ (E,,/F,,/).G,,/.A,,/ | %22
 .B,, z (G,,/A,,/).B,,/.C,/ (F,,/G,,/).A,,/.B,,/ (E,,/F,,/).G,,/.A,,/ | %23
 (D,,/E,,/).F,,/.G,,/ (C,,/D,,/).E,,/.F,,/ (B,,,/C,,/).D,,/.E,,/ (A,,,/B,,,/).C,,/.D,,/ | %24
 B,,, z!mf! (B,,,/C,,/).D,,/.E,,/ (C,,/D,,/).E,,/.F,,/ (E,,/F,,/).G,,/.A,,/ | %25
!f! B,,2 (C,/B,,/).A,,/.G,,/ F,,2 (F,,/E,,/).D,,/.C,,/ | B,,,4 z :| z8 |] %28

